X: 13896
T: Fox On The Town, The
R: reel
M: 4/4
K: Gmajor
|:g2fg edBA|G2BG DG (3Bcd|gedg e3f|g2fd efga|
be e2 edBA|G2BG DG (3Bcd|efgb agfa|g3f g3a:|
|:be e2 bage|dB B2 dega|be e2 bage|dgge a3b|
g3d egdB|G2(3Bcd ed (3Bcd|efgb agfa|g3f g3a:|

